packages/katcn/src/icons/svg/list.svg

<svg width="24" height="25" viewBox="0 0 24 25" fill="none" xmlns="http://www.w3.org/2000/svg">
<path d="M21 5.89603H9.5C8.9 5.89603 8.5 5.49603 8.5 4.89603C8.5 4.29603 8.9 3.89603 9.5 3.89603H21C21.6 3.89603 22 4.29603 22 4.89603C22 5.49603 21.6 5.89603 21 5.89603Z" fill="black"/>
<path d="M21 13.296H9.5C8.9 13.296 8.5 12.896 8.5 12.296C8.5 11.696 8.9 11.296 9.5 11.296H21C21.6 11.296 22 11.696 22 12.296C22 12.896 21.6 13.296 21 13.296Z" fill="black"/>
<path d="M21 20.696H9.5C8.9 20.696 8.5 20.296 8.5 19.696C8.5 19.096 8.9 18.696 9.5 18.696H21C21.6 18.696 22 19.096 22 19.696C22 20.296 21.6 20.696 21 20.696Z" fill="black"/>
<path d="M4.6 7.59602C3.2 7.59602 2 6.39602 2 4.89602C2 3.49602 3.2 2.29602 4.6 2.29602C6.1 2.29602 7.2 3.49602 7.2 4.89602C7.3 6.39602 6.1 7.59602 4.6 7.59602ZM4.6 4.29602C4.3 4.29602 4 4.59602 4 4.89602C4 5.29602 4.3 5.59602 4.6 5.59602C5 5.59602 5.3 5.29602 5.3 4.89602C5.3 4.59602 5 4.29602 4.6 4.29602Z" fill="black"/>
<path d="M4.6 14.896C3.2 14.896 2 13.796 2 12.296C2 10.796 3.2 9.69601 4.6 9.69601C6.1 9.69601 7.2 10.896 7.2 12.296C7.3 13.796 6.1 14.896 4.6 14.896ZM4.6 11.696C4.3 11.696 4 11.896 4 12.296C4 12.696 4.3 12.896 4.6 12.896C5 12.896 5.2 12.596 5.2 12.296C5.3 11.896 5 11.696 4.6 11.696Z" fill="black"/>
<path d="M4.6 22.296C3.2 22.296 2 21.096 2 19.696C2 18.196 3.2 17.096 4.6 17.096C6.1 17.096 7.2 18.296 7.2 19.696C7.3 21.096 6.1 22.296 4.6 22.296ZM4.6 18.996C4.3 18.996 4 19.296 4 19.696C4 19.996 4.3 20.296 4.6 20.296C5 20.296 5.2 19.996 5.2 19.696C5.3 19.296 5 18.996 4.6 18.996Z" fill="black"/>
</svg>

<svg xmlns="http://www.w3.org/2000/svg" fill="none" viewBox="0 0 24 25"><path fill="#000" d="M21 5.896H9.5c-.6 0-1-.4-1-1s.4-1 1-1H21c.6 0 1 .4 1 1s-.4 1-1 1m0 7.4H9.5c-.6 0-1-.4-1-1s.4-1 1-1H21c.6 0 1 .4 1 1s-.4 1-1 1m0 7.4H9.5c-.6 0-1-.4-1-1s.4-1 1-1H21c.6 0 1 .4 1 1s-.4 1-1 1M4.6 7.596c-1.4 0-2.6-1.2-2.6-2.7 0-1.4 1.2-2.6 2.6-2.6 1.5 0 2.6 1.2 2.6 2.6.1 1.5-1.1 2.7-2.6 2.7m0-3.3c-.3 0-.6.3-.6.6 0 .4.3.7.6.7.4 0 .7-.3.7-.7 0-.3-.3-.6-.7-.6m0 10.6c-1.4 0-2.6-1.1-2.6-2.6s1.2-2.6 2.6-2.6c1.5 0 2.6 1.2 2.6 2.6.1 1.5-1.1 2.6-2.6 2.6m0-3.2c-.3 0-.6.2-.6.6s.3.6.6.6c.4 0 .6-.3.6-.6.1-.4-.2-.6-.6-.6m0 10.6c-1.4 0-2.6-1.2-2.6-2.6 0-1.5 1.2-2.6 2.6-2.6 1.5 0 2.6 1.2 2.6 2.6.1 1.4-1.1 2.6-2.6 2.6m0-3.3c-.3 0-.6.3-.6.7 0 .3.3.6.6.6.4 0 .6-.3.6-.6.1-.4-.2-.7-.6-.7"/></svg>
